gy/si-glyph-dice-6-.svg

<svg viewBox="0 0 17 16" xmlns="http://www.w3.org/2000/svg" class="si-glyph si-glyph-dice-6-" height="1em" width="1em">
  <path d="M14.763 0H3.178c-1.18 0-2.135.966-2.135 2.155v11.69c0 1.189.955 2.154 2.135 2.154h11.585a2.145 2.145 0 0 0 2.136-2.154V2.155A2.147 2.147 0 0 0 14.763 0ZM4.002 7.153c-1.146 0-2.075-.951-2.075-2.123 0-1.172.929-2.123 2.075-2.123 1.146 0 2.076.951 2.076 2.123 0 1.172-.93 2.123-2.076 2.123Zm10 0c-1.146 0-2.075-.951-2.075-2.123 0-1.172.929-2.123 2.075-2.123 1.146 0 2.076.951 2.076 2.123 0 1.172-.93 2.123-2.076 2.123Zm-5 6c-1.146 0-2.075-.951-2.075-2.123 0-1.172.929-2.123 2.075-2.123 1.146 0 2.076.951 2.076 2.123 0 1.172-.93 2.123-2.076 2.123Zm5 0c-1.146 0-2.075-.951-2.075-2.123 0-1.172.929-2.123 2.075-2.123 1.146 0 2.076.951 2.076 2.123 0 1.172-.93 2.123-2.076 2.123Zm-5-6c-1.146 0-2.075-.951-2.075-2.123 0-1.172.929-2.123 2.075-2.123 1.146 0 2.076.951 2.076 2.123 0 1.172-.93 2.123-2.076 2.123Zm-5 6c-1.146 0-2.075-.951-2.075-2.123 0-1.172.929-2.123 2.075-2.123 1.146 0 2.076.951 2.076 2.123 0 1.172-.93 2.123-2.076 2.123Z" fill="#434343" class="si-glyph-fill" fill-rule="evenodd"/>
</svg>

<svg viewBox="0 0 17 16" version="1.1" xmlns="http://www.w3.org/2000/svg" class="si-glyph si-glyph-dice-6-" height="1em" width="1em">
  <g stroke="none" stroke-width="1" fill="none" fill-rule="evenodd">
    <path d="M14.763,0 L3.178,0 C1.998,0 1.043,0.966 1.043,2.155 L1.043,13.845 C1.043,15.034 1.998,15.999 3.178,15.999 L14.763,15.999 C15.944,15.999 16.899,15.034 16.899,13.845 L16.899,2.155 C16.898,0.966 15.943,0 14.763,0 L14.763,0 Z M4.002,7.153 C2.856,7.153 1.927,6.202 1.927,5.03 C1.927,3.858 2.856,2.907 4.002,2.907 C5.148,2.907 6.078,3.858 6.078,5.03 C6.078,6.202 5.148,7.153 4.002,7.153 L4.002,7.153 Z M14.002,7.153 C12.856,7.153 11.927,6.202 11.927,5.03 C11.927,3.858 12.856,2.907 14.002,2.907 C15.148,2.907 16.078,3.858 16.078,5.03 C16.078,6.202 15.148,7.153 14.002,7.153 L14.002,7.153 Z M9.002,13.153 C7.856,13.153 6.927,12.202 6.927,11.03 C6.927,9.858 7.856,8.907 9.002,8.907 C10.148,8.907 11.078,9.858 11.078,11.03 C11.078,12.202 10.148,13.153 9.002,13.153 L9.002,13.153 Z M14.002,13.153 C12.856,13.153 11.927,12.202 11.927,11.03 C11.927,9.858 12.856,8.907 14.002,8.907 C15.148,8.907 16.078,9.858 16.078,11.03 C16.078,12.202 15.148,13.153 14.002,13.153 L14.002,13.153 Z M9.002,7.153 C7.856,7.153 6.927,6.202 6.927,5.03 C6.927,3.858 7.856,2.907 9.002,2.907 C10.148,2.907 11.078,3.858 11.078,5.03 C11.078,6.202 10.148,7.153 9.002,7.153 L9.002,7.153 Z M4.002,13.153 C2.856,13.153 1.927,12.202 1.927,11.03 C1.927,9.858 2.856,8.907 4.002,8.907 C5.148,8.907 6.078,9.858 6.078,11.03 C6.078,12.202 5.148,13.153 4.002,13.153 L4.002,13.153 Z" fill="#434343" class="si-glyph-fill"/>
  </g>
</svg>
